X:1
L:1/8
Q:1/4=120
M:4/4
K:D
""^Animated"" D2 | D3 D DEFG | A4 A2 z c | d3 c d2 e2 | f4 A2 A2 | f3 g a2 f2 | e3 f g2 e2 | 
 f2 d>d e2 c2 | d4 d2 z D || D3 D DEFG | A2 A4 c>c | d3 c d2 e2 | f3 g !fermata!a2 A2 | 
 A2 F2 G2 (FG) | A2 F2 G2 (FG) | A F3 AGFE | D4 D2 | z2 | f2 e>e f2 g2 | a4 f2 z f | e3 d (cde).f | 
 g4 e2 z2 | f2 f>g a2 f2 | e3 f g2 e2 | f2 d2 e2 c2 | e (.d3 .d2) z2 || D3 D (DE).F.G | A4 A2 cc | 
 d3 c d2 e2 | f4 A2 A2 | f3 g a2 f2 | e3 f g2 ee | f2 dd e2 c2 | e2 d4 |]
